src/main/resources/icons/DatabaseIcons/icons/rule.svg

<svg xmlns="http://www.w3.org/2000/svg" width="16" height="16" viewBox="0 0 16 16"><rect id="frame" width="16" height="16" fill="none"/><g fill="none" fill-rule="evenodd"><path fill="#9AA7B0" fill-opacity=".8" d="M7 1L3 5h4z"/><path fill="#9AA7B0" fill-opacity=".8" d="M8 1v5H3v9h10V1z"/><path fill="#231F20" fill-opacity=".7" d="M5 12h4v-1H5v1zm0-2h6V9H5v1zm0-2h6V7H5v1z"/></g></svg>

<svg xmlns="http://www.w3.org/2000/svg" width="16" height="16" viewBox="0 0 16 16">
  <g fill="none" fill-rule="evenodd">
    <polygon fill="#9AA7B0" fill-opacity=".8" points="7 1 3 5 7 5"/>
    <polygon fill="#9AA7B0" fill-opacity=".8" points="8 1 8 6 3 6 3 15 13 15 13 1"/>
    <path fill="#231F20" fill-opacity=".7" d="M5,12 L9,12 L9,11 L5,11 L5,12 Z M5,10 L11,10 L11,9 L5,9 L5,10 Z M5,8 L11,8 L11,7 L5,7 L5,8 Z"/>
  </g>
</svg>
